images/3233988.svg

<?xml version="1.0" encoding="UTF-8"?>
<svg xmlns="http://www.w3.org/2000/svg" xmlns:xlink="http://www.w3.org/1999/xlink" width="300pt" height="300pt" viewBox="0 0 300 300" version="1.1">
<defs>
<g>
<symbol overflow="visible" id="glyph0-0">
<path style="stroke:none;" d="M 0.453125 1.59375 L 0.453125 -6.34375 L 4.953125 -6.34375 L 4.953125 1.59375 Z M 0.953125 1.09375 L 4.453125 1.09375 L 4.453125 -5.84375 L 0.953125 -5.84375 Z M 0.953125 1.09375 "/>
</symbol>
<symbol overflow="visible" id="glyph0-1">
<path style="stroke:none;" d="M 0.890625 -6.5625 L 2.078125 -6.5625 L 4.984375 -1.078125 L 4.984375 -6.5625 L 5.84375 -6.5625 L 5.84375 0 L 4.65625 0 L 1.75 -5.484375 L 1.75 0 L 0.890625 0 Z M 0.890625 -6.5625 "/>
</symbol>
<symbol overflow="visible" id="glyph0-2">
<path style="stroke:none;" d="M 3.546875 -5.953125 C 2.898438 -5.953125 2.382812 -5.710938 2 -5.234375 C 1.625 -4.753906 1.4375 -4.101562 1.4375 -3.28125 C 1.4375 -2.445312 1.625 -1.789062 2 -1.3125 C 2.382812 -0.832031 2.898438 -0.59375 3.546875 -0.59375 C 4.191406 -0.59375 4.703125 -0.832031 5.078125 -1.3125 C 5.453125 -1.789062 5.640625 -2.445312 5.640625 -3.28125 C 5.640625 -4.101562 5.453125 -4.753906 5.078125 -5.234375 C 4.703125 -5.710938 4.191406 -5.953125 3.546875 -5.953125 Z M 3.546875 -6.6875 C 4.460938 -6.6875 5.195312 -6.375 5.75 -5.75 C 6.300781 -5.132812 6.578125 -4.3125 6.578125 -3.28125 C 6.578125 -2.238281 6.300781 -1.410156 5.75 -0.796875 C 5.195312 -0.179688 4.460938 0.125 3.546875 0.125 C 2.617188 0.125 1.878906 -0.179688 1.328125 -0.796875 C 0.773438 -1.410156 0.5 -2.238281 0.5 -3.28125 C 0.5 -4.3125 0.773438 -5.132812 1.328125 -5.75 C 1.878906 -6.375 2.617188 -6.6875 3.546875 -6.6875 Z M 3.546875 -6.6875 "/>
</symbol>
<symbol overflow="visible" id="glyph0-3">
<path style="stroke:none;" d="M 0.890625 -6.5625 L 1.765625 -6.5625 L 1.765625 -3.875 L 5 -3.875 L 5 -6.5625 L 5.890625 -6.5625 L 5.890625 0 L 5 0 L 5 -3.125 L 1.765625 -3.125 L 1.765625 0 L 0.890625 0 Z M 0.890625 -6.5625 "/>
</symbol>
</g>
</defs>
<g id="surface51509">
<rect x="0" y="0" width="300" height="300" style="fill:rgb(100%,100%,100%);fill-opacity:1;stroke:none;"/>
<path style="fill:none;stroke-width:1.2;stroke-linecap:butt;stroke-linejoin:miter;stroke:rgb(0%,0%,0%);stroke-opacity:1;stroke-miterlimit:10;" d="M 171.863281 197.125 L 189.792969 186.453125 "/>
<path style="fill:none;stroke-width:1.2;stroke-linecap:butt;stroke-linejoin:miter;stroke:rgb(0%,0%,0%);stroke-opacity:1;stroke-miterlimit:10;" d="M 171.585938 176.261719 L 171.863281 197.125 "/>
<path style="fill:none;stroke-width:1.2;stroke-linecap:butt;stroke-linejoin:miter;stroke:rgb(0%,0%,0%);stroke-opacity:1;stroke-miterlimit:10;" d="M 189.792969 186.453125 L 171.585938 176.261719 "/>
<path style="fill:none;stroke-width:1.2;stroke-linecap:butt;stroke-linejoin:miter;stroke:rgb(0%,0%,0%);stroke-opacity:1;stroke-miterlimit:10;" d="M 171.585938 176.261719 L 166.25 167.296875 "/>
<path style="fill:none;stroke-width:1.2;stroke-linecap:butt;stroke-linejoin:miter;stroke:rgb(0%,0%,100%);stroke-opacity:1;stroke-miterlimit:10;" d="M 166.25 167.296875 L 160.914062 158.332031 "/>
<path style="fill:none;stroke-width:1.2;stroke-linecap:butt;stroke-linejoin:miter;stroke:rgb(0%,0%,100%);stroke-opacity:1;stroke-miterlimit:10;" d="M 160.914062 158.332031 L 166.007812 149.226562 "/>
<path style="fill:none;stroke-width:1.2;stroke-linecap:butt;stroke-linejoin:miter;stroke:rgb(0%,0%,0%);stroke-opacity:1;stroke-miterlimit:10;" d="M 166.007812 149.226562 L 171.105469 140.125 "/>
<path style="fill:none;stroke-width:1.2;stroke-linecap:butt;stroke-linejoin:miter;stroke:rgb(0%,0%,0%);stroke-opacity:1;stroke-miterlimit:10;" d="M 140.046875 158.609375 L 150.480469 158.46875 "/>
<path style="fill:none;stroke-width:1.2;stroke-linecap:butt;stroke-linejoin:miter;stroke:rgb(0%,0%,100%);stroke-opacity:1;stroke-miterlimit:10;" d="M 150.480469 158.46875 L 160.914062 158.332031 "/>
<path style=" stroke:none;fill-rule:nonzero;fill:rgb(100%,100%,100%);fill-opacity:1;" d="M 157.914062 152.832031 L 164.914062 152.832031 L 164.914062 163.832031 L 157.914062 163.832031 Z M 157.914062 152.832031 "/>
<g style="fill:rgb(0%,0%,100%);fill-opacity:1;">
  <use xlink:href="#glyph0-1" x="157.914062" y="161.495117"/>
</g>
<path style="fill:none;stroke-width:1.2;stroke-linecap:butt;stroke-linejoin:miter;stroke:rgb(0%,0%,0%);stroke-opacity:1;stroke-miterlimit:10;" d="M 171.105469 140.125 L 181.535156 139.984375 "/>
<path style="fill:none;stroke-width:1.2;stroke-linecap:butt;stroke-linejoin:miter;stroke:rgb(0%,0%,100%);stroke-opacity:1;stroke-miterlimit:10;" d="M 181.535156 139.984375 L 191.96875 139.84375 "/>
<path style="fill:none;stroke-width:1.2;stroke-linecap:butt;stroke-linejoin:miter;stroke:rgb(0%,0%,0%);stroke-opacity:1;stroke-miterlimit:10;" d="M 173.125 135.1875 L 181.46875 135.074219 "/>
<path style="fill:none;stroke-width:1.2;stroke-linecap:butt;stroke-linejoin:miter;stroke:rgb(0%,0%,100%);stroke-opacity:1;stroke-miterlimit:10;" d="M 181.46875 135.074219 L 189.816406 134.964844 "/>
<path style="fill:none;stroke-width:1.2;stroke-linecap:butt;stroke-linejoin:miter;stroke:rgb(0%,0%,0%);stroke-opacity:1;stroke-miterlimit:10;" d="M 160.433594 122.195312 L 171.105469 140.125 "/>
<path style="fill:none;stroke-width:1.2;stroke-linecap:butt;stroke-linejoin:miter;stroke:rgb(0%,0%,100%);stroke-opacity:1;stroke-miterlimit:10;" d="M 191.96875 139.84375 L 197.0625 130.742188 "/>
<path style="fill:none;stroke-width:1.2;stroke-linecap:butt;stroke-linejoin:miter;stroke:rgb(0%,0%,0%);stroke-opacity:1;stroke-miterlimit:10;" d="M 197.0625 130.742188 L 202.160156 121.636719 "/>
<path style=" stroke:none;fill-rule:nonzero;fill:rgb(100%,100%,100%);fill-opacity:1;" d="M 188.96875 134.34375 L 195.96875 134.34375 L 195.96875 145.34375 L 188.96875 145.34375 Z M 188.96875 134.34375 "/>
<g style="fill:rgb(0%,0%,100%);fill-opacity:1;">
  <use xlink:href="#glyph0-1" x="188.96875" y="143.006836"/>
</g>
<path style="fill:none;stroke-width:1.2;stroke-linecap:butt;stroke-linejoin:miter;stroke:rgb(0%,0%,0%);stroke-opacity:1;stroke-miterlimit:10;" d="M 202.160156 121.636719 L 196.824219 112.671875 "/>
<path style="fill:none;stroke-width:1.2;stroke-linecap:butt;stroke-linejoin:miter;stroke:rgb(0%,0%,100%);stroke-opacity:1;stroke-miterlimit:10;" d="M 196.824219 112.671875 L 191.488281 103.707031 "/>
<path style="fill:none;stroke-width:1.2;stroke-linecap:butt;stroke-linejoin:miter;stroke:rgb(0%,0%,0%);stroke-opacity:1;stroke-miterlimit:10;" d="M 196.875 122.355469 L 192.605469 115.183594 "/>
<path style="fill:none;stroke-width:1.2;stroke-linecap:butt;stroke-linejoin:miter;stroke:rgb(0%,0%,100%);stroke-opacity:1;stroke-miterlimit:10;" d="M 192.605469 115.183594 L 188.335938 108.011719 "/>
<path style="fill:none;stroke-width:1.2;stroke-linecap:butt;stroke-linejoin:miter;stroke:rgb(0%,0%,0%);stroke-opacity:1;stroke-miterlimit:10;" d="M 202.160156 121.636719 L 212.589844 121.5 "/>
<path style="fill:none;stroke-width:1.2;stroke-linecap:butt;stroke-linejoin:miter;stroke:rgb(0%,0%,100%);stroke-opacity:1;stroke-miterlimit:10;" d="M 212.589844 121.5 L 223.023438 121.359375 "/>
<path style="fill:none;stroke-width:1.2;stroke-linecap:butt;stroke-linejoin:miter;stroke:rgb(0%,0%,100%);stroke-opacity:1;stroke-miterlimit:10;" d="M 191.488281 103.707031 L 181.054688 103.847656 "/>
<path style="fill:none;stroke-width:1.2;stroke-linecap:butt;stroke-linejoin:miter;stroke:rgb(0%,0%,0%);stroke-opacity:1;stroke-miterlimit:10;" d="M 181.054688 103.847656 L 170.625 103.984375 "/>
<path style=" stroke:none;fill-rule:nonzero;fill:rgb(100%,100%,100%);fill-opacity:1;" d="M 188.488281 98.207031 L 195.488281 98.207031 L 195.488281 109.207031 L 188.488281 109.207031 Z M 188.488281 98.207031 "/>
<g style="fill:rgb(0%,0%,100%);fill-opacity:1;">
  <use xlink:href="#glyph0-1" x="188.488281" y="106.870117"/>
</g>
<path style="fill:none;stroke-width:1.2;stroke-linecap:butt;stroke-linejoin:miter;stroke:rgb(0%,0%,0%);stroke-opacity:1;stroke-miterlimit:10;" d="M 170.625 103.984375 L 160.433594 122.195312 "/>
<path style="fill:none;stroke-width:1.2;stroke-linecap:butt;stroke-linejoin:miter;stroke:rgb(0%,0%,0%);stroke-opacity:1;stroke-miterlimit:10;" d="M 173.886719 108.203125 L 165.734375 122.769531 "/>
<path style="fill:none;stroke-width:1.2;stroke-linecap:butt;stroke-linejoin:miter;stroke:rgb(0%,0%,0%);stroke-opacity:1;stroke-miterlimit:10;" d="M 160.433594 122.195312 L 150 122.332031 "/>
<path style="fill:none;stroke-width:1.2;stroke-linecap:butt;stroke-linejoin:miter;stroke:rgb(0%,0%,100%);stroke-opacity:1;stroke-miterlimit:10;" d="M 150 122.332031 L 139.566406 122.472656 "/>
<path style="fill:none;stroke-width:1.2;stroke-linecap:butt;stroke-linejoin:miter;stroke:rgb(0%,0%,100%);stroke-opacity:1;stroke-miterlimit:10;" d="M 139.566406 122.472656 L 134.472656 131.574219 "/>
<path style="fill:none;stroke-width:1.2;stroke-linecap:butt;stroke-linejoin:miter;stroke:rgb(0%,0%,0%);stroke-opacity:1;stroke-miterlimit:10;" d="M 134.472656 131.574219 L 129.375 140.679688 "/>
<path style="fill:none;stroke-width:1.2;stroke-linecap:butt;stroke-linejoin:miter;stroke:rgb(0%,0%,100%);stroke-opacity:1;stroke-miterlimit:10;" d="M 142.832031 126.691406 L 138.757812 133.972656 "/>
<path style="fill:none;stroke-width:1.2;stroke-linecap:butt;stroke-linejoin:miter;stroke:rgb(0%,0%,0%);stroke-opacity:1;stroke-miterlimit:10;" d="M 138.757812 133.972656 L 134.679688 141.253906 "/>
<path style=" stroke:none;fill-rule:nonzero;fill:rgb(100%,100%,100%);fill-opacity:1;" d="M 136.566406 116.972656 L 143.566406 116.972656 L 143.566406 127.972656 L 136.566406 127.972656 Z M 136.566406 116.972656 "/>
<g style="fill:rgb(0%,0%,100%);fill-opacity:1;">
  <use xlink:href="#glyph0-1" x="136.566406" y="125.635742"/>
</g>
<path style="fill:none;stroke-width:1.2;stroke-linecap:butt;stroke-linejoin:miter;stroke:rgb(0%,0%,0%);stroke-opacity:1;stroke-miterlimit:10;" d="M 129.375 140.679688 L 140.046875 158.609375 "/>
<path style="fill:none;stroke-width:1.2;stroke-linecap:butt;stroke-linejoin:miter;stroke:rgb(0%,0%,0%);stroke-opacity:1;stroke-miterlimit:10;" d="M 129.375 140.679688 L 108.511719 140.957031 "/>
<path style="fill:none;stroke-width:1.2;stroke-linecap:butt;stroke-linejoin:miter;stroke:rgb(0%,0%,0%);stroke-opacity:1;stroke-miterlimit:10;" d="M 137.90625 157.410156 L 132.8125 166.511719 "/>
<path style="fill:none;stroke-width:1.2;stroke-linecap:butt;stroke-linejoin:miter;stroke:rgb(100%,0%,0%);stroke-opacity:1;stroke-miterlimit:10;" d="M 132.8125 166.511719 L 127.714844 175.617188 "/>
<path style="fill:none;stroke-width:1.2;stroke-linecap:butt;stroke-linejoin:miter;stroke:rgb(0%,0%,0%);stroke-opacity:1;stroke-miterlimit:10;" d="M 142.191406 159.808594 L 137.09375 168.910156 "/>
<path style="fill:none;stroke-width:1.2;stroke-linecap:butt;stroke-linejoin:miter;stroke:rgb(100%,0%,0%);stroke-opacity:1;stroke-miterlimit:10;" d="M 137.09375 168.910156 L 132 178.015625 "/>
<path style=" stroke:none;fill-rule:nonzero;fill:rgb(100%,100%,100%);fill-opacity:1;" d="M 121.855469 171.316406 L 129.855469 171.316406 L 129.855469 182.316406 L 121.855469 182.316406 Z M 121.855469 171.316406 "/>
<g style="fill:rgb(100%,0%,0%);fill-opacity:1;">
  <use xlink:href="#glyph0-2" x="121.855469" y="179.979492"/>
</g>
<path style="fill:none;stroke-width:1.2;stroke-linecap:butt;stroke-linejoin:miter;stroke:rgb(0%,0%,0%);stroke-opacity:1;stroke-miterlimit:10;" d="M 108.511719 140.957031 L 97.839844 123.027344 "/>
<path style="fill:none;stroke-width:1.2;stroke-linecap:butt;stroke-linejoin:miter;stroke:rgb(0%,0%,0%);stroke-opacity:1;stroke-miterlimit:10;" d="M 97.839844 123.027344 L 76.976562 123.304688 "/>
<path style="fill:none;stroke-width:1.2;stroke-linecap:butt;stroke-linejoin:miter;stroke:rgb(0%,0%,0%);stroke-opacity:1;stroke-miterlimit:10;" d="M 76.976562 123.304688 L 66.304688 105.375 "/>
<path style="fill:none;stroke-width:1.2;stroke-linecap:butt;stroke-linejoin:miter;stroke:rgb(0%,0%,0%);stroke-opacity:1;stroke-miterlimit:10;" d="M 71.691406 124.023438 L 63.152344 109.679688 "/>
<path style="fill:none;stroke-width:1.2;stroke-linecap:butt;stroke-linejoin:miter;stroke:rgb(0%,0%,0%);stroke-opacity:1;stroke-miterlimit:10;" d="M 66.785156 141.511719 L 76.976562 123.304688 "/>
<path style="fill:none;stroke-width:1.2;stroke-linecap:butt;stroke-linejoin:miter;stroke:rgb(0%,0%,0%);stroke-opacity:1;stroke-miterlimit:10;" d="M 66.304688 105.375 L 45.441406 105.652344 "/>
<path style="fill:none;stroke-width:1.2;stroke-linecap:butt;stroke-linejoin:miter;stroke:rgb(0%,0%,0%);stroke-opacity:1;stroke-miterlimit:10;" d="M 45.441406 105.652344 L 35.25 123.859375 "/>
<path style="fill:none;stroke-width:1.2;stroke-linecap:butt;stroke-linejoin:miter;stroke:rgb(0%,0%,0%);stroke-opacity:1;stroke-miterlimit:10;" d="M 48.707031 109.871094 L 40.554688 124.4375 "/>
<path style="fill:none;stroke-width:1.2;stroke-linecap:butt;stroke-linejoin:miter;stroke:rgb(0%,0%,0%);stroke-opacity:1;stroke-miterlimit:10;" d="M 35.25 123.859375 L 45.921875 141.789062 "/>
<path style="fill:none;stroke-width:1.2;stroke-linecap:butt;stroke-linejoin:miter;stroke:rgb(0%,0%,0%);stroke-opacity:1;stroke-miterlimit:10;" d="M 45.921875 141.789062 L 66.785156 141.511719 "/>
<path style="fill:none;stroke-width:1.2;stroke-linecap:butt;stroke-linejoin:miter;stroke:rgb(0%,0%,0%);stroke-opacity:1;stroke-miterlimit:10;" d="M 47.941406 136.851562 L 64.632812 136.628906 "/>
<path style="fill:none;stroke-width:1.2;stroke-linecap:butt;stroke-linejoin:miter;stroke:rgb(0%,0%,100%);stroke-opacity:1;stroke-miterlimit:10;" d="M 223.023438 121.359375 L 228.359375 130.324219 "/>
<path style="fill:none;stroke-width:1.2;stroke-linecap:butt;stroke-linejoin:miter;stroke:rgb(0%,0%,0%);stroke-opacity:1;stroke-miterlimit:10;" d="M 228.359375 130.324219 L 233.695312 139.289062 "/>
<path style="fill:none;stroke-width:1.2;stroke-linecap:butt;stroke-linejoin:miter;stroke:rgb(0%,0%,0%);stroke-opacity:1;stroke-miterlimit:10;" d="M 233.214844 103.152344 L 228.117188 112.257812 "/>
<path style="fill:none;stroke-width:1.2;stroke-linecap:butt;stroke-linejoin:miter;stroke:rgb(0%,0%,100%);stroke-opacity:1;stroke-miterlimit:10;" d="M 228.117188 112.257812 L 223.023438 121.359375 "/>
<path style=" stroke:none;fill-rule:nonzero;fill:rgb(100%,100%,100%);fill-opacity:1;" d="M 220.023438 115.859375 L 227.023438 115.859375 L 227.023438 126.859375 L 220.023438 126.859375 Z M 220.023438 115.859375 "/>
<g style="fill:rgb(0%,0%,100%);fill-opacity:1;">
  <use xlink:href="#glyph0-1" x="220.023438" y="124.522461"/>
</g>
<path style="fill:none;stroke-width:1.2;stroke-linecap:butt;stroke-linejoin:miter;stroke:rgb(0%,0%,0%);stroke-opacity:1;stroke-miterlimit:10;" d="M 233.695312 139.289062 L 254.558594 139.011719 "/>
<path style="fill:none;stroke-width:1.2;stroke-linecap:butt;stroke-linejoin:miter;stroke:rgb(0%,0%,0%);stroke-opacity:1;stroke-miterlimit:10;" d="M 254.558594 139.011719 L 259.652344 129.910156 "/>
<path style="fill:none;stroke-width:1.2;stroke-linecap:butt;stroke-linejoin:miter;stroke:rgb(0%,0%,100%);stroke-opacity:1;stroke-miterlimit:10;" d="M 259.652344 129.910156 L 264.75 120.804688 "/>
<path style="fill:none;stroke-width:1.2;stroke-linecap:butt;stroke-linejoin:miter;stroke:rgb(0%,0%,100%);stroke-opacity:1;stroke-miterlimit:10;" d="M 264.75 120.804688 L 259.414062 111.839844 "/>
<path style="fill:none;stroke-width:1.2;stroke-linecap:butt;stroke-linejoin:miter;stroke:rgb(0%,0%,0%);stroke-opacity:1;stroke-miterlimit:10;" d="M 259.414062 111.839844 L 254.078125 102.875 "/>
<path style=" stroke:none;fill-rule:nonzero;fill:rgb(100%,100%,100%);fill-opacity:1;" d="M 257.75 115.304688 L 271.75 115.304688 L 271.75 126.304688 L 257.75 126.304688 Z M 257.75 115.304688 "/>
<g style="fill:rgb(0%,0%,100%);fill-opacity:1;">
  <use xlink:href="#glyph0-1" x="257.75" y="123.967773"/>
  <use xlink:href="#glyph0-3" x="264.727539" y="123.967773"/>
</g>
<path style="fill:none;stroke-width:1.2;stroke-linecap:butt;stroke-linejoin:miter;stroke:rgb(0%,0%,0%);stroke-opacity:1;stroke-miterlimit:10;" d="M 254.078125 102.875 L 233.214844 103.152344 "/>
</g>
</svg>

<svg xmlns="http://www.w3.org/2000/svg" xmlns:xlink="http://www.w3.org/1999/xlink" width="300pt" height="300pt" viewBox="0 0 300 300"><defs><symbol overflow="visible"><path d="M.453 1.594v-7.938h4.5v7.938zm.5-.5h3.5v-6.938h-3.5zm0 0"/></symbol><symbol overflow="visible" id="a"><path d="M.89-6.563H2.08l2.906 5.485v-5.484h.86V0H4.656L1.75-5.484V0H.89zm0 0"/></symbol><symbol overflow="visible" id="b"><path d="M3.547-5.953c-.65 0-1.164.242-1.547.72-.375.48-.563 1.13-.563 1.952 0 .835.188 1.49.563 1.967.383.48.898.72 1.547.72.644 0 1.156-.24 1.53-.72.376-.476.564-1.132.564-1.968 0-.822-.187-1.474-.562-1.954-.375-.477-.887-.72-1.53-.72zm0-.734c.914 0 1.648.312 2.203.937.55.617.828 1.438.828 2.47 0 1.042-.277 1.87-.828 2.483-.555.617-1.29.922-2.203.922-.93 0-1.668-.305-2.22-.922C.774-1.41.5-2.237.5-3.28c0-1.033.273-1.853.828-2.47.55-.625 1.29-.938 2.22-.938zm0 0"/></symbol><symbol overflow="visible" id="c"><path d="M.89-6.563h.876v2.688H5v-2.688h.89V0H5v-3.125H1.766V0H.89zm0 0"/></symbol></defs><g><path fill="#fff" d="M0 0h300v300H0z"/><path d="M171.863 197.125l17.93-10.672M171.586 176.262l.277 20.863M189.793 186.453l-18.207-10.19M171.586 176.262l-5.336-8.965" stroke-width="1.2" stroke="#000" stroke-miterlimit="10" fill="none"/><path d="M166.25 167.297l-5.336-8.965M160.914 158.332l5.094-9.105" stroke-width="1.2" stroke="#00f" stroke-miterlimit="10" fill="none"/><path d="M166.008 149.227l5.097-9.102M140.047 158.61l10.433-.14" stroke-width="1.2" stroke="#000" stroke-miterlimit="10" fill="none"/><path d="M150.48 158.47l10.434-.138" stroke-width="1.2" stroke="#00f" stroke-miterlimit="10" fill="none"/><path d="M157.914 152.832h7v11h-7zm0 0" fill="#fff"/><use xlink:href="#a" x="157.914" y="161.495" fill="#00f"/><path d="M171.105 140.125l10.43-.14" stroke-width="1.2" stroke="#000" stroke-miterlimit="10" fill="none"/><path d="M181.535 139.984l10.434-.14" stroke-width="1.2" stroke="#00f" stroke-miterlimit="10" fill="none"/><path d="M173.125 135.188l8.344-.114" stroke-width="1.2" stroke="#000" stroke-miterlimit="10" fill="none"/><path d="M181.47 135.074l8.346-.11" stroke-width="1.2" stroke="#00f" stroke-miterlimit="10" fill="none"/><path d="M160.434 122.195l10.67 17.93" stroke-width="1.2" stroke="#000" stroke-miterlimit="10" fill="none"/><path d="M191.97 139.844l5.093-9.102" stroke-width="1.2" stroke="#00f" stroke-miterlimit="10" fill="none"/><path d="M197.063 130.742l5.097-9.105" stroke-width="1.2" stroke="#000" stroke-miterlimit="10" fill="none"/><path d="M188.97 134.344h7v11h-7zm0 0" fill="#fff"/><use xlink:href="#a" x="188.969" y="143.007" fill="#00f"/><path d="M202.16 121.637l-5.336-8.965" stroke-width="1.2" stroke="#000" stroke-miterlimit="10" fill="none"/><path d="M196.824 112.672l-5.336-8.965" stroke-width="1.2" stroke="#00f" stroke-miterlimit="10" fill="none"/><path d="M196.875 122.355l-4.27-7.17" stroke-width="1.2" stroke="#000" stroke-miterlimit="10" fill="none"/><path d="M192.605 115.184l-4.27-7.172" stroke-width="1.2" stroke="#00f" stroke-miterlimit="10" fill="none"/><path d="M202.16 121.637l10.43-.137" stroke-width="1.2" stroke="#000" stroke-miterlimit="10" fill="none"/><path d="M212.59 121.5l10.433-.14M191.488 103.707l-10.433.14" stroke-width="1.2" stroke="#00f" stroke-miterlimit="10" fill="none"/><path d="M181.055 103.848l-10.43.136" stroke-width="1.2" stroke="#000" stroke-miterlimit="10" fill="none"/><path d="M188.488 98.207h7v11h-7zm0 0" fill="#fff"/><use xlink:href="#a" x="188.488" y="106.87" fill="#00f"/><path d="M170.625 103.984l-10.19 18.21M173.887 108.203l-8.153 14.567M160.434 122.195l-10.434.137" stroke-width="1.2" stroke="#000" stroke-miterlimit="10" fill="none"/><path d="M150 122.332l-10.434.14M139.566 122.473l-5.093 9.1" stroke-width="1.2" stroke="#00f" stroke-miterlimit="10" fill="none"/><path d="M134.473 131.574l-5.098 9.106" stroke-width="1.2" stroke="#000" stroke-miterlimit="10" fill="none"/><path d="M142.832 126.69l-4.074 7.283" stroke-width="1.2" stroke="#00f" stroke-miterlimit="10" fill="none"/><path d="M138.758 133.973l-4.078 7.28" stroke-width="1.2" stroke="#000" stroke-miterlimit="10" fill="none"/><path d="M136.566 116.973h7v11h-7zm0 0" fill="#fff"/><use xlink:href="#a" x="136.566" y="125.636" fill="#00f"/><path d="M129.375 140.68l10.672 17.93M129.375 140.68l-20.863.277M137.906 157.41l-5.094 9.102" stroke-width="1.2" stroke="#000" stroke-miterlimit="10" fill="none"/><path d="M132.813 166.512l-5.098 9.105" stroke-width="1.2" stroke="#f00" stroke-miterlimit="10" fill="none"/><path d="M142.19 159.81l-5.096 9.1" stroke-width="1.2" stroke="#000" stroke-miterlimit="10" fill="none"/><path d="M137.094 168.91L132 178.016" stroke-width="1.2" stroke="#f00" stroke-miterlimit="10" fill="none"/><path d="M121.855 171.316h8v11h-8zm0 0" fill="#fff"/><use xlink:href="#b" x="121.855" y="179.979" fill="#f00"/><path d="M108.512 140.957l-10.672-17.93M97.84 123.027l-20.863.278M76.977 123.305l-10.672-17.93M71.69 124.023l-8.538-14.343M66.785 141.512l10.192-18.207M66.305 105.375l-20.864.277M45.44 105.652L35.25 123.86M48.707 109.87l-8.152 14.567M35.25 123.86l10.672 17.93M45.922 141.79l20.863-.278M47.94 136.852l16.693-.223" stroke-width="1.2" stroke="#000" stroke-miterlimit="10" fill="none"/><path d="M223.023 121.36l5.336 8.964" stroke-width="1.2" stroke="#00f" stroke-miterlimit="10" fill="none"/><path d="M228.36 130.324l5.335 8.965M233.215 103.152l-5.098 9.106" stroke-width="1.2" stroke="#000" stroke-miterlimit="10" fill="none"/><path d="M228.117 112.258l-5.094 9.1" stroke-width="1.2" stroke="#00f" stroke-miterlimit="10" fill="none"/><path d="M220.023 115.86h7v11h-7zm0 0" fill="#fff"/><use xlink:href="#a" x="220.023" y="124.522" fill="#00f"/><path d="M233.695 139.29l20.864-.278M254.56 139.012l5.092-9.102" stroke-width="1.2" stroke="#000" stroke-miterlimit="10" fill="none"/><path d="M259.652 129.91l5.098-9.105M264.75 120.805l-5.336-8.965" stroke-width="1.2" stroke="#00f" stroke-miterlimit="10" fill="none"/><path d="M259.414 111.84l-5.336-8.965" stroke-width="1.2" stroke="#000" stroke-miterlimit="10" fill="none"/><path d="M257.75 115.305h14v11h-14zm0 0" fill="#fff"/><g fill="#00f"><use xlink:href="#a" x="257.75" y="123.968"/><use xlink:href="#c" x="264.728" y="123.968"/></g><path d="M254.078 102.875l-20.863.277" stroke-width="1.2" stroke="#000" stroke-miterlimit="10" fill="none"/></g></svg>
